!!! OTL: Berkowitz399
!!! Chapter: 1
!!! Section: III
!!! Page: 98
!!! Mode: 
!!! Encoder: DJB
**kern
*staff1
*I"Piano
=1-
*clefF4
*k[b-e-a-d-]
*f:
*M3/4
8C\L
8En\J
8G\L
8B-\J
4d-\
=2
4.c\
8B-\
8A-\L
8G\J
=3
4.B-\
8A-\
8G\L
8F\J
=4
8En\L
8F\J
8G\L
8E\J
4C/
=5
8E-\L
8G\J
8B-\L
8d-\J
4f\
=6
4.e-\
8d-\
8c\L
8B-\J
=7
8An\L
8B-\J
4d-\
8F\L
8G\J
=8
4A-\
4r
4B-\
=9
!!linebreak:original
8c\L
8Bn\J
4c\
4C/
=10
4D-\
4c\
4B-\
=11
8B-\L
8An\J
4B-\
4C/
=12
4D-\
4B-\
4A-\
=13
8G\L
8F\J
8En\L
8Dn\J
8C\L
8E\J
=14
4G\
4B-\
4d-\
=15
8r
8c\
8B-\L
8A-\J
8G\L
8A-\J
=16
2.F\
==
*-
